X:2
T:The Piper's Whim
R:jig
D:Natalie MacMaster, LIVE, 2002
Z:Paul Stewart Cranford (P.S.C.), <http://www.cranfordpub.com>
L:1/8
Q:288
M:6/8
K:Amix
a3 efg|f3 ef^g|aAA a2f|ecA cec|
a3 efg|f3 ef^g|agf g2 e|dBG BdB:|
|:c2 e A2 e|cde e2d|c2 e A2 g|dBG BdB|
[1c2 e A2 e|cde ef^g|agf g2 e|dBG BdB:|
[2c2 e d2 f|e2 f f2 ^g|agf g2 e|dBG BdB||
